X:1
T:Magnificat
T:Magnificat
T:Francesco Feroci
T:© cpdl
T:© cpdl
T:© cpdl
T:© cpdl
T:© cpdl
T:© cpdl
T:© cpdl
T:© cpdl
T:© cpdl
T:© cpdl
C:Francesco Feroci
Z:© cpdl
%%score [ 1 2 3 ]
L:1/8
Q:1/4=120
M:none
K:C
V:1 treble-8 nm="Tenor 1" snm="T 1"
V:2 treble-8 nm="Tenor 2" snm="T 2"
V:3 bass nm="Bass" snm="B"
V:1
 !stemless!A2 (!stemless!G2 !stemless!A2) !stemless!A2 !stemless!A2 | %1
w: Ma- gni- * fi- cat|
 !stemless!A2 !stemless!A2 !stemless!G2 !stemless!A2 (!stemless!B2 !stemless!A2) !stemless!G2 (!stemless!G2 !stemless!F2) !stemless!E3 x || %2
w: a- ni- ma me- a _ Do- mi- * num.|
[M:2/2] e4 d2 d2 | e3 d c4 | B4 c4 | B2 Bc d3 c | B4 c2 c2 | d2 d2 c4 | B2 c3 B A2 | f4 e2 dc | %10
w: Et ex- sul-|ta- * *|vit spi-|ri- tus _ me- *|* us Et|ex- sul- ta-|vit spi- ri- tus|me- * * *|
 d8 | e2 z2 z2 G2 | c3 B A2 G2 | A2 B2 G2 E2 | z2 c2 f2 e2 | d2 ^c2 d2 B2 | c3 B A4 | ^G8 || %18
w: |us in|De- o sa- lu-|ta- ri me- o.|in De- o|sa- lu- ta- ri|me- * *|o.|
 !stemless!A2 (!stemless!G2 !stemless!A2) A16 !stemless!G2 !stemless!A2 !stemless!B2 !stemless!A3 x | %19
w: Qui- a _ respexithumilitateman- cil- lae su- ae:|
 A16 !stemless!G2 !stemless!A2 (!stemless!B2 !stemless!A2) (!stemless!G2 !stemless!F2) !stemless!E3 x || %20
w: ecceenimexhocbeatammedicentomnesge- ne- ra- ti- * o- * nes.|
[M:2/2] z8 | z8 | z4 e4- | e2 ^c2 d3 e | f2 e2 d2 ed | c2 d2 e4- | e4 z2 c2 | B2 A2 B2 e2 | %28
w: ||Qui-|* a fe- *|* cit mi- hi _|ma- * gna|_ qui|po- tens est: et|
 e2 e2 e4 | f3 e d4 | e8 | z2 c2 c2 c2 | d3 c B4 | c8 | B8 || %35
w: san- ctum no-|men _ e-|jus.|et san- ctum|no- * men|e-|jus.|
 !stemless!A2 (!stemless!G2 !stemless!A2) A16 !stemless!G2 !stemless!A2 !stemless!B2 !stemless!A2 !stemless!A3 x | %36
w: Et mi- * sericordiaejusaprogenie in pro- ge- ni- es|
 !stemless!A2 !stemless!G2 !stemless!A2 (!stemless!B2 !stemless!A2) (!stemless!G2 !stemless!F2) !stemless!E3 x || %37
w: ti- men- ti- bus _ e- * um.|
[M:2/2] B6 ^c2- | c2 d2 e3 e | d6 f2 | e2 e4 d2 | c2 B2 z2 d2 | e2 dd e2 d2 | z2 e2 e2 ed | %44
w: Fe- cit|_ po- ten- ti-|am in|bra- chi- o|su- o: di-|sper- sit su- per- bos,|di- sper- sit su-|
 c2 B2 z2 d2 | c4 f4 | e2 A4 ^G2 | A8 | ^G8 || %49
w: per- bos men-|te cor-|dis su- *||i.|
 !stemless!A2 (!stemless!G2 !stemless!A2) !stemless!A2 !stemless!A2 !stemless!A2 !stemless!A2 !stemless!G2 !stemless!A2 !stemless!B2 !stemless!A3 x | %50
w: De- po- * su- it po- ten- tes de se- de,|
 !stemless!A2 !stemless!A2 !stemless!G2 !stemless!A2 (!stemless!B2 !stemless!A2) !stemless!G2 (!stemless!G2 !stemless!F2) !stemless!E3 x || %51
w: et ex- al- ta- vit _ hu- mi- * les.|
[M:2/2] A3 B c2 A2 | B2 c2 B4 | z8 | E3 F G2 E2 | F2 D4 d2 | c3 d e4- | e2 d2 c2 B2 | %58
w: E- * su- ri-|en- * tes||E- * su- ri-|en- tes im-|ple- * *|* vit bo- nis:|
 z2 c2 B2 ^c2 | d2 d2 d2 d2 | e4 c4 | f3 e d2 d2 | e3 d c2 c2 | d2 d4 c2 | B8 | ^c8 || %66
w: et di- vi-|tes, et di- vi-|tes di-|mi- * sit in-|a- * nes, di-|mi- sit in-|a-|nes.|
 !stemless!A2 (!stemless!G2 !stemless!A2) !stemless!A2 !stemless!A2 !stemless!A2 !stemless!A2 !stemless!A2 !stemless!G2 !stemless!A2 !stemless!B2 !stemless!A3 x | %67
w: Sus- ce- * pit Is- ra- el pu- e- rum su- um,|
 A16 !stemless!G2 !stemless!A2 (!stemless!B2 !stemless!A2) (!stemless!G2 !stemless!F2) !stemless!E3 x || %68
w: recordatusmiseri- cor- di- ae _ su- * ae.|
[M:2/2] z8 | z8 | e4 c2 d2 | (ed)(cB) A2 d2 | c3 d e4- | e2 dc d2 A2 | B2 B4 c2 | B4 z2 e2- | %76
w: ||Si- cut lo-|cu- * tus _ est ad|pa- * *|* tres _ _ no-|stros, A- bra-|ham A-|
 e2 f2 e2 e2- | e2 A3 A B2 | c4 d2 e2 | f3 f e4 | z4 z2 e2- | e2 d2 e2 e2- | e2 c2 d2 d2 | c6 B2- | %84
w: * bra- ham et|_ se- mi- ni|e- jus in|sae- cu- la,|A-|* bra- ham et|_ se- mi- ni|e- jus|
 B2 z2 c2 e2- | e2 e2 A2 d2- | d2 c4 B2- | B2 c4 c2 | B8 || %89
w: _ et se-|* mi- ni e-|* jus in|_ sae- cu-|la.|
 !stemless!A2 !stemless!G2 !stemless!A2 !stemless!A2 !stemless!A2 !stemless!G2 !stemless!A2 !stemless!B2 !stemless!A2 !stemless!A3 x | %90
w: Glo- ri- * a Pa- tri et Fi- li- o,|
 !stemless!A2 !stemless!A2 !stemless!G2 !stemless!A2 !stemless!B2 !stemless!A2 !stemless!G2 !stemless!F2 !stemless!E3 x | %91
w: et Spi- ri- tu- i _ San- * cto.|
[M:2/2] B3 B B2 e2 | c2 f2 e2 dc | d2 e2 c2 f2 | e4 d4 | c4 z4 | z2 e3 d(cB) | c3 c B4 | %98
w: Si- cut e- rat|in prin- ci- pi- *|o, et nunc, et|sem- *|per,|et _ in _|sae- cu- la|
 z2 A3 G(FE) | F3 G A2 d2 | cB A4 ^G2 | A4 E2 e2- | ed c4 B2 | c4 B4 | z2 A4 ^G2 | A3 B c4 | B8 |] %107
w: sae- * cu- *|lo- * * rum.|A- * * *|* men, sae-|* cu- lo- rum.|A- men,|A- *||men.|
V:2
 z10 | z22 ||[M:2/2] z8 | z4 A4 | G2 G2 A4 | G4 A2 A2- | A2 ^G2 A4 | B4 z2 A2 | G2 G2 A4- | %9
w: |||Et|ex- sul- ta-|vit spi- ri-|* tus me-|us spi-|ri- tus me-|
 A2 d4 c2- | c2 BA B2 G2 | c2 B2 A2 G2 | F2 C2 D2 E2 | z2 G2 c3 B | A3 G A3 G | F2 E2 ^F2 ^G2 | %16
w: |* * * us in|De- o sa- lu-|ta- ri me- o.|in De- o|sa- lu- ta- *|* ri me- *|
 A3 B c4 | B8 || z32 | z32 ||[M:2/2] z8 | A6 G2 | A3 B c2 B2 | A4 B4 | c3 B A2 G2 | A4 B2 c2 | %26
w: |o.||||Qui- a|fe- * * cit|mi- hi|ma- * * *|* gna qui|
 B2 c2 B2 A2 | ^G2 A2 G4 | z2 ^c2 c2 c2 | d3 c B2 G2 | G2 G2 c3 B | A6 G2 | FG A4 ^G2 | A8 | ^G8 || %35
w: po- tens est, qui|po- tens est:|et san- ctum|no- * men et|san- ctum no- *|* men|e- * * *||jus.|
 z34 | z18 ||[M:2/2] ^G6 A2- | A2 AB c3 c | B2 B4 c2- | cc B2 A4- | A2 ^G2 z2 B2 | c2 dd c2 B2 | %43
w: ||Fe- cit|_ po- * ten- ti-|am in bra-|* chi- o su-|* o: di-|sper- sit su- per- bos,|
 z2 B2 c2 BB | A2 ^G2 z2 A2- | A2 G2 A2 d2 | c4 B4 | c8 | B8 || z24 | z22 ||[M:2/2] z8 | z8 | %53
w: di- sper- sit su-|per- bos men-|* te cor- dis|su- *||i.|||||
 A3 B c2 A2 | B6 c2 | d4 A2 f2 | e3 d c2 B2 | A6 ^G2 | z2 A2 E2 A2 | A2 B2 A2 B2 | c2 G2 A4 | %61
w: E- * su- ri-|en- *|* tes im-|ple- * * vit|bo- nis:|et di- vi-|tes, et di- vi-|tes di- mi-|
 A2 A2 B4 | c2 G4 A2- | A2 B3 B A2- | A2 ^G^F G4 | A8 || z26 | z32 ||[M:2/2] B4 G2 A2 | %69
w: sit in- a-|nes, di- mi-|* sit in- a-||nes.|||Si- cut lo-|
 (BA)(GF) E2 ^F2 | G2 G2 A2 G2- | G2 e2 c2 f2 | e3 d c2 B2 | A8 | ^G2 G4 A2 | ^G4 z2 ^c2- | %76
w: cu- * tus _ est ad|pa- tres no- stros,|_ ad pa- tres|no- * * *||stros, A- bra-|ham A-|
 c2 d2 ^c2 c2- | c2 d3 d d2 | G2 A2 B2 c2- | c2 B2 c2 e2- | e2 d2 e2 c2- | c2 B2 c2 G2- | %82
w: * bra- ham et|_ se- mi- ni|e- jus in sae-|* cu- la, A-|* bra- ham A-|* bra- ham et|
 G2 A3 A B2- | B2 A4 ^G2- | G2 A4 =G2- | GG A2 F4 | E2 A4 ^G2- | G2 A4 A2 | ^G8 || z22 | z20 | %91
w: _ se- mi- ni|_ e- jus|_ et se-|* mi- ni e-|jus in _|_ sae- cu-|la.|||
[M:2/2] ^G3 G G2 G2 | A2 AB c3 c | B2 c2 A2 d2- | d2 c4 B2 | c2 e3 d(cB) | c3 c B4 | A4 E4 | %98
w: Si- cut e- rat|in prin- * ci- pi-|o, et nunc, et|_ sem- *|per, et _ in _|sae- cu- la|sae- cu-|
 ABcd e4 | A4 f2 f2 | e3 d c2 B2 | c4 B4 | z2 A4 ^G2 | A4 E2 e2- | ed c4 B2 | c3 B A4 | ^G8 |] %107
w: lo- * * * *|rum. sae- cu-|lo- * * rum.|A- men,|sae- cu-|lo- rum. A-|||men.|
V:3
 z10 | z22 ||[M:2/2] z8 | z8 | z8 | E,4 D,2 D,2 | E,4 A,,2 A,2 | G,2 G,2 A,4 | E,4 F,3 E, | %9
w: |||||Et ex- sul-|ta- vit Et|ex- sul- ta-|vit spi- ri-|
 D,4 A,4 | G,8 | C,2 G,2 C2 B,2 | A,2 G,2 F,2 E,2 | F,2 E,4 C,2 | F,3 E, D,2 ^C,2 | %15
w: tus me-||us in De- o|sa- lu- ta- ri|me- o. in|De- o sa- lu-|
 D,2 A,,2 D,2 E,2 | A,,8 | E,8 || z32 | z32 ||[M:2/2] E,6 C,2 | D,3 E, F,2 E,2 | F,2 D,2 A,2 ^G,2 | %23
w: ta- ri me- *||o.|||Qui- a|fe- * * cit|mi- hi ma- gna|
 z2 A,4 ^G,2 | A,3 G, F,2 E,2 | F,4 E,2 A,2 | ^G,2 A,2 E,2 A,2 | E,2 F,2 E,4 | z2 A,2 A,2 A,2 | %29
w: qui- a|fe- cit mi- hi|ma- gna qui|po- tens est, qui|po- tens est:|et san- ctum|
 F,2 D,2 G,3 F, | E,2 C,2 C,2 C,2 | F,6 E,2 | D,4 E,4 | A,,8 | E,8 || z34 | z18 || %37
w: no- men e- *|jus. et san- ctum|no- *|* men|e-|jus.|||
[M:2/2] E,6 A,,2- | A,,2 D,2 C,3 C, | G,2 G,4 A,2- | A,A, G,2 F,4 | E,4 z2 G,2 | %42
w: Fe- cit|_ po- ten- ti-|am in bra-|* chi- o su-|o: di-|
 C,2 B,,B,, C,2 G,2 | z2 E,2 A,2 ^G,G, | A,2 E,2 z2 F,2- | F,2 E,2 D,E,F,G, | A,4 E,4 | %47
w: sper- sit su- per- bos,|di- sper- sit su-|per- bos men-|* te cor- * * *|* dis|
 A,,3 B,, C,2 D,2 | E,8 || z24 | z22 ||[M:2/2] z8 | E,3 F, G,2 E,2 | F,3 G, A,4 | G,4 z2 E,2 | %55
w: su- * * *|i.||||E- * su- ri-|en- * *|tes im-|
 D,3 E, F,2 D,2 | A,6 G,2 | F,4 E,4 | z2 A,2 ^G,2 A,2 | D,2 G,2 ^F,2 G,2 | C,2 C,2 F,3 E, | %61
w: ple- * * vit|bo- *|* nis:|et di- vi-|tes, et di- vi-|tes di- mi- *|
 D,2 D,2 G,3 F, | E,2 C,4 F,2- | F,2 G,4 A,2 | E,8 | A,,8 || z26 | z32 ||[M:2/2] z8 | E,4 C,2 D,2 | %70
w: sit in- a- *|nes, di- mi-|* sit in-|a-|nes.||||Si- cut lo-|
 (E,D,)(C,B,,) A,,2 B,,2 | C,2 C,2 F,2 D,2 | A,6 G,2 | F,8 | E,2 E,4 A,2 | E,4 z2 A,2- | %76
w: cu- * tus _ est _|_ ad pa- tres|no- *||stros, A- bra-|ham A-|
 A,2 D,2 A,2 A,2- | A,2 ^F,3 F, G,2 | E,2 F,4 E,2 | D,3 D, C,2 C2- | C2 B,2 C4 | z4 z2 C,2- | %82
w: * bra- ham et|_ se- mi- ni|e- jus in|sae- cu- la, A-|* bra- ham|et|
 C,2 F,3 F, G,2 | A,3 G,/F,/ E,4- | E,2 F,4 C,2- | C,C, C,2 D,4 | A,,4 E,4- | E,2 A,,4 A,,2 | %88
w: _ se- mi- ni|e- * * jus|_ et se-|* mi- ni e-|jus in|_ sae- cu-|
 E,8 || z22 | z20 |[M:2/2] E,3 E, E,2 E,2 | F,2 D,2 A,3 A, | G,2 E,2 F,2 D,2 | E,3 F, G,4 | %95
w: la,|||Si- cut e- rat|in prin- ci- pi-|o, et nunc, et|sem- * *|
 C,2 C3 B,(A,G,) | A,3 A, E,4 | z2 A,3 G,(F,E,) | F,4 C,4 | z2 D,3 E,F,G, | A,4 E,4 | z2 A,4 ^G,2 | %102
w: per, et _ in _|sae- cu- la|sae- * cu- *|lo- rum.|A- * * *|* men,|sae- cu-|
 A,4 E,4 | z2 A,4 ^G,2 | A,4 E,4 | A,,8 | E,8 |] %107
w: lo- rum.|A- *|* men,|A-|men.|

